icons/svg/old_road_shields/h_ter_shield5.svg

<svg width="46" height="17" viewBox="0 0 46 17" fill="none" xmlns="http://www.w3.org/2000/svg">
<g clip-path="url(#clip0)">
<path fill-rule="evenodd" clip-rule="evenodd" d="M8.012 0.00100708H37.326C41.754 0.00100708 45.355 3.60601 45.355 8.04201V8.92901C45.355 13.364 41.753 16.97 37.326 16.97H8.012C3.612 16.97 0.012001 13.365 0.012001 8.92901V8.04201C0.012001 3.60601 3.611 0.00100708 8.012 0.00100708Z" fill="#E7E768"/>
<path fill-rule="evenodd" clip-rule="evenodd" d="M8.555 0.915009H36.812C40.753 0.915009 43.955 4.14901 43.955 8.06901V8.89901C43.955 12.82 40.754 16.055 36.812 16.055H8.555C4.612 16.055 1.383 12.821 1.383 8.89901V8.06901C1.383 4.14901 4.611 0.915009 8.555 0.915009Z" fill="white"/>
<path fill-rule="evenodd" clip-rule="evenodd" d="M8.726 2.604H36.64C39.697 2.604 42.212 5.122 42.212 8.184V8.813C42.212 11.875 39.696 14.395 36.64 14.395H8.726C5.64 14.395 3.155 11.875 3.155 8.813V8.185C3.154 5.122 5.64 2.604 8.726 2.604Z" fill="#E7E768"/>
</g>
<defs>
<clipPath id="clip0">
<path d="M0 0H45.368V16.969H0V0Z" fill="white"/>
</clipPath>
</defs>
</svg>

<?xml version="1.0" encoding="utf-8"?>
<!-- Generator: Adobe Illustrator 16.0.4, SVG Export Plug-In . SVG Version: 6.00 Build 0)  -->
<!DOCTYPE svg PUBLIC "-//W3C//DTD SVG 1.1//EN" "http://www.w3.org/Graphics/SVG/1.1/DTD/svg11.dtd">
<svg version="1.1" id="Слой_1" xmlns="http://www.w3.org/2000/svg" xmlns:xlink="http://www.w3.org/1999/xlink" x="0px" y="0px"
	 width="45.368px" height="16.969px" viewBox="0 0 45.368 16.969" enable-background="new 0 0 45.368 16.969" xml:space="preserve">
<path fill-rule="evenodd" clip-rule="evenodd" fill="#E7E768" d="M8.012,0.001h29.314c4.428,0,8.029,3.605,8.029,8.041v0.887
	c0,4.435-3.602,8.041-8.029,8.041H8.012c-4.4,0-8-3.605-8-8.041V8.042C0.012,3.606,3.611,0.001,8.012,0.001L8.012,0.001z"/>
<path fill-rule="evenodd" clip-rule="evenodd" fill="#FFFFFF" d="M8.555,0.915h28.257c3.941,0,7.143,3.234,7.143,7.154v0.83
	c0,3.921-3.201,7.156-7.143,7.156H8.555c-3.943,0-7.172-3.234-7.172-7.156v-0.83C1.383,4.149,4.611,0.915,8.555,0.915L8.555,0.915z"
	/>
<path fill-rule="evenodd" clip-rule="evenodd" fill="#E7E768" d="M8.726,2.604H36.64c3.057,0,5.572,2.518,5.572,5.58v0.629
	c0,3.062-2.516,5.582-5.572,5.582H8.726c-3.086,0-5.571-2.52-5.571-5.582V8.185C3.154,5.122,5.64,2.604,8.726,2.604L8.726,2.604z"/>
</svg>
